X: 27
T: Missa Conceptio tua / Kyrie
N: Derived from Rue1006a-Missa_Conceptio_tua-Kyrie.krn
C: Pierre de la Rue
%%abc-version 2.0
%%abcx-abcm2ps-target-version 5.9.1 (29 Sep 2008)
%%abc-creator hum2abc beta
%%abcx-conversion-date 2019/02/17 08:01:10
%%abc-edited-by Jesse Rodin
%%abc-edited-by Chris Gage 01-03-2013
%%abcx-initial-encoding-date 2013/07/20/
%%humdrum-veritas 1331027285
%%humdrum-veritas-data 1625319921
%%linebreak <none>
%%barnumbers 0
L: 1/4
M: 3/1
Q: 1/2=120
V: 1 clef=treble-8
V: 2 clef=treble-8
V: 3 clef=treble-8
V: 4 clef=bass
V: 5 clef=bass
K: C
[V:1] z12 | 
[V:2] D8D4 | 
[V:3] z12 | 
[V:4] z12 | 
[V:5] D,6C,2B,,4 | 
[V:1] z12 | 
[V:2] C4F8 | 
[V:3] z12 | 
[V:4] z12 | 
[V:5] A,,4D,8 | 
[V:1] d8d4 | 
[V:2] G3EFGA4^G2 | 
[V:3] z12 | 
[V:4] z12 | 
[V:5] G,,4D,3C,B,,A,,B,,2 | 
[V:1] c4f8 | 
[V:2] A4A2F4ED | 
[V:3] z12 | 
[V:4] z4D,8 | 
[V:5] A,,4D,,8 | 
[V:1] g3efga4^g2 | 
[V:2] E2c4A2B4 | 
[V:3] z12 | 
[V:4] C,4F,4E,4 | 
[V:5] z12 | 
[V:1] a4z4d3e | 
[V:2] A8z4 | 
[V:3] D8D4 | 
[V:4] F,3E,F,G,A,4^G,2 | 
[V:5] z2D,4C,2B,,4 | 
[V:1] f2e2d2f3edc | 
[V:2] z12 | 
[V:3] C4F8 | 
[V:4] A,12 | 
[V:5] A,,4D,8 | 
[V:1] B2g2fedcd4 | 
[V:2] z12 | 
[V:3] G3EFGA4^G2 | 
[V:4] z4z4D,4 | 
[V:5] G,,4D,4B,,4 | 
[V:1] c12 | 
[V:2] z2A3Bc2F3G | 
[V:3] A12 | 
[V:4] E,4E,2C,4C,2 | 
[V:5] A,,3B,,C,2F,,3G,,A,,2 | 
[V:1] d6z2z4 | 
[V:2] AGFEF2E4D2 | 
[V:3] z4z4A4 | 
[V:4] A,,2C,3B,,B,,4A,,2 | 
[V:5] D,,2A,,3E,,G,,2F,,4 | 
[V:1] e8e4 | 
[V:2] E8z2E2- | 
[V:3] G8G4 | 
[V:4] B,,8z2B,,2- | 
[V:5] E,,12- | 
[V:1] g8f4 | 
[V:2] EFGAB2c2A4 | 
[V:3] E8F4 | 
[V:4] B,,2E,4C,2D,4 | 
[V:5] E,,8z4 | 
[V:1] ede4d3cc2 | 
[V:2] G6A2G2E2 | 
[V:3] G3FD2F2E4 | 
[V:4] B,,6A,,2B,,2C,2 | 
[V:5] E,,3F,,G,,2F,,2G,,2A,,2 | 
[V:1] d2ABcde2A2f2 | 
[V:2] F4E2E4D2 | 
[V:3] D4z4A4 | 
[V:4] A,,2A,,4G,,2A,,4 | 
[V:5] D,,E,,F,,G,,A,,2E,,2F,,4 | 
[V:1] g3fe2dcB2B2- | 
[V:2] E4C2D2E4 | 
[V:3] G2E4F2G3F | 
[V:4] B,,4z4B,,4- | 
[V:5] E,,4z4E,,3F,, | 
[V:1] Bcd2A2f2g2e2- | 
[V:2] z2A3GFEE2c2 | 
[V:3] D2F2E2A4G2 | 
[V:4] B,,2A,,2C,4B,,3A,, | 
[V:5] G,,2D,,2A,,4E,,3F,, | 
[V:1] edcBA2d4^c2 | 
[V:2] B2A2B2A3GE2 | 
[V:3] E2F2GDF2E4 | 
[V:4] B,,2C,2D,3C,A,,2C,2 | 
[V:5] G,,2A,,2G,,2D,,2A,,4 | 
[V:1] d12 ||  
[V:2] F3GA8 ||  
[V:3] D12 ||  
[V:4] _B,,4A,,8 ||  
[V:5] D,,12 ||  
[V:1]  [K:C] [K:clef=treble-8][M:2/1]z4d4- | 
[V:2]  [K:C] [K:clef=treble-8][M:2/1]A8- | 
[V:3]  [K:C] [K:clef=treble-8][M:2/1]D8 | 
[V:4]  [K:C] [K:clef=bass][M:2/1]z8 | 
[V:5]  [K:C] [K:clef=bass][M:2/1]D,,8- | 
[V:1] d4f4- | 
[V:2] A8 | 
[V:3] F8 | 
[V:4] D,8 | 
[V:5] D,,8 | 
[V:1] f2d2d4- | 
[V:2] A8- | 
[V:3] D8 | 
[V:4] F,8 | 
[V:5] D,,8- | 
[V:1] d4f4- | 
[V:2] A8 | 
[V:3] F6E2 | 
[V:4] D,6C,B,, | 
[V:5] D,,8 | 
[V:1] f2e2d2c2 | 
[V:2] A8- | 
[V:3] D2C2F4- | 
[V:4] A,,8 | 
[V:5] F,,8 | 
[V:1] f4g4 | 
[V:2] A4B4 | 
[V:3] F4E4 | 
[V:4] C,4B,,4 | 
[V:5] A,,4G,,4 | 
[V:1] a6gf | 
[V:2] A4c4- | 
[V:3] F8 | 
[V:4] C,8 | 
[V:5] F,,8 | 
[V:1] e2f4e2 | 
[V:2] c2BAG2c2- | 
[V:3] G8 | 
[V:4] z4C,4 | 
[V:5] C,8 | 
[V:1] f8 | 
[V:2] c2A4c2- | 
[V:3] F8 | 
[V:4] C,2D,4C,B,, | 
[V:5] F,,8- | 
[V:1] z4z2f2 | 
[V:2] cBAGF2D2 | 
[V:3] A8 | 
[V:4] A,,3B,,C,2D,2 | 
[V:5] F,,8 | 
[V:1] e2a3ge2- | 
[V:2] E4A3G | 
[V:3] A8 | 
[V:4] C,2A,,3B,,C,2- | 
[V:5] z8 | 
[V:1] e2g3fd2- | 
[V:2] E4G3F | 
[V:3] G8 | 
[V:4] C,B,,G,,3A,,_B,,2- | 
[V:5] z8 | 
[V:1] d2f3ec2- | 
[V:2] D4A4 | 
[V:3] F8 | 
[V:4] B,,A,,F,,3G,,A,,=B,, | 
[V:5] z8 | 
[V:1] cdefg2e2 | 
[V:2] G4G4 | 
[V:3] E8 | 
[V:4] C,8 | 
[V:5] z8 | 
[V:1] f6ed | 
[V:2] F2A4GF | 
[V:3] D8 | 
[V:4] z8 | 
[V:5] z8 | 
[V:1] c8 | 
[V:2] E8 | 
[V:3] z2A3GE2- | 
[V:4] C,8 | 
[V:5] A,,8 | 
[V:1] z8 | 
[V:2] z8 | 
[V:3] E2G3FD2- | 
[V:4] B,,8 | 
[V:5] G,,8 | 
[V:1] z8 | 
[V:2] z8 | 
[V:3] D2F3EC2- | 
[V:4] A,,8 | 
[V:5] F,,8 | 
[V:1] e8 | 
[V:2] G3AB2c2 | 
[V:3] CDEFG2E2- | 
[V:4] G,,8 | 
[V:5] E,,8 | 
[V:1] g8 | 
[V:2] B4E4- | 
[V:3] E2G3FED | 
[V:4] G,,3A,,B,,A,,B,,2 | 
[V:5] E,,3F,,G,,4 | 
[V:1] e8 | 
[V:2] E2F2G4 | 
[V:3] C2D4^C2 | 
[V:4] C,2B,,A,,G,,4 | 
[V:5] A,,2G,,F,,E,,4 | 
[V:1] f8 | 
[V:2] F3GA2B2 | 
[V:3] D8 | 
[V:4] A,,8- | 
[V:5] D,,8 | 
[V:1] e8 | 
[V:2] c2d3^c^c2 | 
[V:3] z8 | 
[V:4] A,,8 | 
[V:5] z8 | 
[V:1] d2f3ec2- | 
[V:2] d4A4 | 
[V:3] z8 | 
[V:4] z8 | 
[V:5] z2D,3C,A,,2- | 
[V:1] cdefg2e2- | 
[V:2] c4G4- | 
[V:3] E8 | 
[V:4] z8 | 
[V:5] A,,B,,C,D,E,2C,2- | 
[V:1] e2g3fed | 
[V:2] G4B4 | 
[V:3] G8 | 
[V:4] z8 | 
[V:5] C,2B,,A,,G,,4 | 
[V:1] c2d4^c2 | 
[V:2] A8- | 
[V:3] E8 | 
[V:4] z8 | 
[V:5] A,,8 | 
[V:1] d4z2d2 | 
[V:2] A8 | 
[V:3] F8 | 
[V:4] A,,6B,,2 | 
[V:5] D,,8 | 
[V:1] e2c3de2 | 
[V:2] z8 | 
[V:3] E8 | 
[V:4] C,2A,,3B,,C,2 | 
[V:5] z8 | 
[V:1] f2d3efg | 
[V:2] A8 | 
[V:3] D8- | 
[V:4] D,2A,,4F,2- | 
[V:5] D,,3E,,F,,2D,,2- | 
[V:1] a2d3c_B2 | 
[V:2] A4G2F2 | 
[V:3] D8- | 
[V:4] F,E,D,C,_B,,2D,2- | 
[V:5] D,,E,,F,,2G,,2D,,2 | 
[V:1] A2G2g4 | 
[V:2] A2_B2G3A | 
[V:3] D8- | 
[V:4] D,C,_B,,A,,B,,4 | 
[V:5] F,,2G,,4G,,2 | 
[V:1] f8 ||  
[V:2] A8 ||  
[V:3] D8 ||  
[V:4] A,,8 ||  
[V:5] D,,8 ||  
[V:1]  [K:C] [K:clef=treble-8][M:3/1]f8e2c2 | 
[V:2]  [K:C] [K:clef=treble-8][M:3/1]D8C4 | 
[V:3]  [K:C] [K:clef=treble-8][M:3/1]z12 | 
[V:4]  [K:C] [K:clef=bass][M:3/1]z12 | 
[V:5]  [K:C] [K:clef=bass][M:3/1]z12 | 
[V:1] d3cA2c2B4 | 
[V:2] F3GA2A4^G2 | 
[V:3] z12 | 
[V:4] z12 | 
[V:5] z12 | 
[V:1] A4z4z4 | 
[V:2] A4z4z4 | 
[V:3] z4A8 | 
[V:4] z4C,3D,E,2F,2 | 
[V:5] z4A,,3B,,C,2D,2 | 
[V:1] z12 | 
[V:2] z12 | 
[V:3] G4E4F4 | 
[V:4] G,2E,2G,4F,2D,2- | 
[V:5] E,2C,3D,E,C,D,2F,2- | 
[V:1] z12 | 
[V:2] z12 | 
[V:3] G3FD2F2E4 | 
[V:4] D,C,C,2D,4A,,4 | 
[V:5] F,2E,3D,D,4^C,2 | 
[V:1] z2d4f4d2- | 
[V:2] z4D4F4 | 
[V:3] D4z4z4 | 
[V:4] z12 | 
[V:5] D,4z4z4 | 
[V:1] d2f3ec3def | 
[V:2] D4F3GABc2- | 
[V:3] z12 | 
[V:4] z12 | 
[V:5] z12 | 
[V:1] g2a2e2a4^g2 | 
[V:2] c2BAc3dB4 | 
[V:3] z12 | 
[V:4] z4z4E,4 | 
[V:5] z12 | 
[V:1] a4z4z4 | 
[V:2] A4z4z4 | 
[V:3] z4A4G4 | 
[V:4] F,6E,4D,2- | 
[V:5] z2D,4C,4B,,2- | 
[V:1] z12 | 
[V:2] z12 | 
[V:3] F4E4G4 | 
[V:4] D,2C,3D,E,4B,,2- | 
[V:5] B,,2A,,4C,4G,,2- | 
[V:1] z12 | 
[V:2] z12 | 
[V:3] D3EFGA3GE2 | 
[V:4] B,,C,D,3E,F,2E,3C, | 
[V:5] G,,A,,B,,C,D,3C,A,,2C,2 | 
[V:1] z2c3defg2e2 | 
[V:2] z12 | 
[V:3] G2FE2DD4^C2 | 
[V:4] D,2C,3B,,A,,4G,,2 | 
[V:5] B,,2A,,3G,,F,,2E,,4 | 
[V:1] f2d4cBA4 | 
[V:2] z2D3EFGA2F2 | 
[V:3] D12 | 
[V:4] A,,12 | 
[V:5] D,,12 | 
[V:1] B2e4g4e2- | 
[V:2] G4E4G4 | 
[V:3] z12 | 
[V:4] z12 | 
[V:5] z12 | 
[V:1] edcBA2d4^c2 | 
[V:2] E4F3GE4 | 
[V:3] z12 | 
[V:4] z12 | 
[V:5] z12 | 
[V:1] d4z2d2e2g2- | 
[V:2] D8z4 | 
[V:3] z4z4E4 | 
[V:4] A,4F,2G,3F,E,2 | 
[V:5] z2D,4B,,2C,3B,, | 
[V:1] gfe2d2e3fg2 | 
[V:2] z12 | 
[V:3] G8E4 | 
[V:4] D,2E,2B,,2E,3D,C,B,, | 
[V:5] G,,2C,2G,,2C,2C,B,,A,,G,, | 
[V:1] a6gfe2a2- | 
[V:2] A6B2c4 | 
[V:3] F6EDE4 | 
[V:4] A,,8z4 | 
[V:5] (3F,,2G,,2A,,2D,,4A,,4 | 
[V:1] age2f3de3c | 
[V:2] d2c4c2c3B/A/ | 
[V:3] D2A3FG3EF2- | 
[V:4] z2C,3D,E,F,G,2A,2 | 
[V:5] z2A,,2F,,2C,4A,,2 | 
[V:1] dBcde2d3^c^c2 | 
[V:2] G2A2A8- | 
[V:3] FDE2C2D2E4 | 
[V:4] D,3C,A,,2A,3G,E,2 | 
[V:5] B,,2A,,4D,,2A,,4 | 
[V:1] d12 |]  
[V:2] A12 |]  
[V:3] D12 |]  
[V:4] F,12 |]  
[V:5] z4D,,4D,,4 |]  



